X: 1
T: Hunt The Squirrel
R: jig
S: Nottingham Music Database
B: Playford #30 ("Squirrel")
Z: 1997 by John Chambers <jc:trillian.mit.edu>
N: Some versions have long e's in bars 1 and 5; others have repeated notes.
M: 6/8
K: A
cB \
|:"A"Ae-e e2f | e3 c3 |    ABc  "D"B2A | "A"ABc "E7"B2A \
| "A"Ae-e e2f | e3 c3 | "D"ABc "E7"B2A | "A"A3      z3 :|
ABc \
|:"D"d2e fed | "D/C"d2e fed |  "Bm"d2e     f2g | "F#m"a3 agf \
| "A"ec2 ec2 | "C#m"ec2 e3  | "F#m"ABc "E7"B2A |   "A"A3 z3 :|
